X:244
T:Corner House, The
M:C|
L:1/8
C:Junior Crehan?
R:reel
Z:id:hn-reel-71
K:Ador
"Ami"EAAG ABcd|e2dB cAAG|"G"EGGF G2AB|cABG AGED|
"Ami"EAAG ABcd|e2af gedB|"G"d2Bd efge|1 "Emi"dBGB "Ami"A2AG:|2 "Emi"dBGB
"Ami"A2Bd||
|:"Ami"eaag a2ga|bgab gedB|"G"d2Bd edBd|(3efg fa gdBd|
"Ami"eaag a2ga|bgab gedB|"G"d2Bd efge|1 "Emi"dBGB A2Bd:|2 "Emi"dBGB "[Am
i]"A2AG||
